X: 895
T: Sleeping Lulu
C:Skillet Lickers version, 1931
B: jims roots
L:1/8
R: Reel
Q: 1/4=100
K:C
V:1 
%D:Skillet Lickers (1931)
%D:Document DOCD 8060, The Skillet Lickers vol. 5
%D:http://www.slippery-hill.com/recording/sleeping-lulu
"C"GAcd edce | abag edcA | GAcd edcA | cccc [G2c2]EG- |
"F"GGAA  dcAA |  "C"Gc-e2  ageg | "G"aged c(G[G2A2])  | "C"[G6c6] :|
g2- | "C"c'2c'2- c'gag | gage- edcA  |  GAcd  edcA |  c6g2- |
c'2c'2- c'ga2 | g2e2 dcAA | "D"d[d2f2][df]- [df][df]ef | "G"gedc  BG[G2B2] ||
"F"AAAc dcAB  |  "C"cceg ageg | "G"aged c(G [G2A2]) | "C"[G6c6] |]
V:G2c2 
- | "C"[Gc]Acd edcc | abag edcA | GAcd edcA |c-dcd c2[G2c2]- |
V:Gc 
Acd edcc | abag edcd | "G"ea2b ageg | abag edcA ||
V:G2B2 
"C"c'3c' a2 | g2 [e2e2]([de]c)AA | GAc[de]- [ee][de]cA | c6 G2- |
% abcbook-tune_id 6298c2870c95bae23749db91


% abcbook-boost 0
% abcbook-tablature 
% abcbook-transpose 
% abcbook-lastupdated 1654178440476
% abcbook-soundfonts 
% abcbook-repeats 1


